fs/games_32_regular.svg

<svg viewBox="0 0 32 32" fill="none" xmlns="http://www.w3.org/2000/svg" height="1em" width="1em">
  <path d="M22 19C22 20.1046 21.1046 21 20 21C18.8954 21 18 20.1046 18 19C18 17.8954 18.8954 17 20 17C21.1046 17 22 17.8954 22 19ZM22 15C23.1046 15 24 14.1046 24 13C24 11.8954 23.1046 11 22 11C20.8954 11 20 11.8954 20 13C20 14.1046 20.8954 15 22 15ZM10 12C10.5523 12 11 12.4477 11 13V15H13C13.5523 15 14 15.4477 14 16C14 16.5523 13.5523 17 13 17H11V19C11 19.5523 10.5523 20 10 20C9.44771 20 9 19.5523 9 19V17H7C6.44772 17 6 16.5523 6 16C6 15.4477 6.44772 15 7 15H9V13C9 12.4477 9.44772 12 10 12ZM2 16C2 10.4772 6.47715 6 12 6H20C25.5228 6 30 10.4772 30 16C30 21.5228 25.5228 26 20 26H12C6.47715 26 2 21.5228 2 16ZM12 8C7.58172 8 4 11.5817 4 16C4 20.4183 7.58172 24 12 24H20C24.4183 24 28 20.4183 28 16C28 11.5817 24.4183 8 20 8H12Z" fill="#212121"/>
</svg>

<svg viewBox="0 0 32 32" fill="none" xmlns="http://www.w3.org/2000/svg" height="1em" width="1em">
  <path d="M22 19a2 2 0 1 1-4 0 2 2 0 0 1 4 0Zm0-4a2 2 0 1 0 0-4 2 2 0 0 0 0 4Zm-12-3a1 1 0 0 1 1 1v2h2a1 1 0 1 1 0 2h-2v2a1 1 0 1 1-2 0v-2H7a1 1 0 1 1 0-2h2v-2a1 1 0 0 1 1-1Zm-8 4C2 10.477 6.477 6 12 6h8c5.523 0 10 4.477 10 10s-4.477 10-10 10h-8C6.477 26 2 21.523 2 16Zm10-8a8 8 0 1 0 0 16h8a8 8 0 1 0 0-16h-8Z" fill="#212121"/>
</svg>
